polaris-icons/icons/new-icons/PhoneInMajor.svg

<svg width="20" height="20" viewBox="0 0 20 20" fill="none" xmlns="http://www.w3.org/2000/svg">
<path fill-rule="evenodd" clip-rule="evenodd" d="M6.75106 3C4.72076 2.99947 2.8899 4.68105 3.22366 6.85492C3.6439 9.59201 4.66574 11.8667 6.34462 13.5701C8.02463 15.2746 10.3065 16.35 13.145 16.7858C15.3188 17.1196 16.9989 15.2886 16.9989 13.2591L16.9989 12.5316C16.9989 11.736 16.4622 11.0405 15.6926 10.8388L13.7926 10.3408C13.3635 10.2283 12.9077 10.283 12.5174 10.4937L11.4501 11.0701C11.0984 11.26 10.7867 11.2349 10.5995 11.1043C9.98076 10.6726 9.33572 10.0201 8.90591 9.3946C8.77333 9.20164 8.75068 8.88527 8.94221 8.53373L9.51404 7.48416L9.51537 7.48169C9.72613 7.09137 9.7808 6.63559 9.66833 6.2065L9.17031 4.30648C8.9686 3.53693 8.27301 3.00028 7.47749 3.00019L6.75106 3ZM4.70629 6.62728C4.53708 5.52521 5.46664 4.49966 6.75066 4.5L7.47749 4.50019C7.59116 4.50019 7.69051 4.57686 7.71933 4.6868L8.21735 6.58682C8.23334 6.64781 8.22523 6.71342 8.1955 6.76899L7.62501 7.81609C7.24741 8.50918 7.12851 9.45654 7.66962 10.2441C8.19987 11.0158 8.97223 11.798 9.74117 12.3345C10.5253 12.8816 11.4724 12.7627 12.1628 12.3899L13.2301 11.8136C13.2859 11.7835 13.351 11.7757 13.4123 11.7918L15.3123 12.2898C15.4222 12.3186 15.4989 12.418 15.4989 12.5316L15.4989 13.2591C15.4989 14.5434 14.4741 15.4723 13.3726 15.3032C10.7856 14.9059 8.82251 13.9472 7.41292 12.5171C6.0022 11.0858 5.08984 9.12543 4.70629 6.62728Z" fill="#4A4A4A"/>
<path d="M14.7489 9.00977C15.1631 9.00977 15.4989 8.67398 15.4989 8.25977C15.4989 7.84555 15.1631 7.50977 14.7489 7.50977H13.5596L16.2792 4.7901C16.5721 4.4972 16.5721 4.02233 16.2792 3.72944C15.9863 3.43654 15.5115 3.43654 15.2186 3.72944L12.4989 6.44911V5.25977C12.4989 4.84555 12.1631 4.50977 11.7489 4.50977C11.3347 4.50977 10.9989 4.84555 10.9989 5.25977V8.25977C10.9989 8.67398 11.3347 9.00977 11.7489 9.00977L14.7489 9.00977Z" fill="#4A4A4A"/>
</svg>

<svg viewBox="0 0 20 20" xmlns="http://www.w3.org/2000/svg"><path fill-rule="evenodd" d="M6.751 3c-2.03 0-3.861 1.681-3.527 3.855.42 2.737 1.442 5.012 3.12 6.715 1.68 1.705 3.962 2.78 6.801 3.216 2.174.334 3.854-1.497 3.854-3.527v-.727a1.75 1.75 0 0 0-1.306-1.693l-1.9-.498a1.75 1.75 0 0 0-1.276.153l-1.067.576c-.352.19-.663.165-.85.034a7.184 7.184 0 0 1-1.694-1.71c-.133-.192-.155-.509.036-.86l.572-1.05.001-.002c.211-.39.266-.846.153-1.276l-.498-1.9a1.75 1.75 0 0 0-1.693-1.306h-.726Zm-2.045 3.627c-.169-1.102.76-2.127 2.045-2.127h.726a.25.25 0 0 1 .242.187l.498 1.9a.252.252 0 0 1-.022.182l-.57 1.047c-.378.693-.496 1.64.045 2.428a8.678 8.678 0 0 0 2.071 2.09c.784.548 1.731.429 2.422.056l1.067-.576a.25.25 0 0 1 .182-.022l1.9.498a.25.25 0 0 1 .187.242v.727c0 1.284-1.025 2.213-2.126 2.044-2.587-.397-4.55-1.356-5.96-2.786-1.41-1.431-2.323-3.392-2.707-5.89Z" fill="#5C5F62"/><path d="M14.749 9.01a.75.75 0 0 0 0-1.5h-1.19l2.72-2.72a.75.75 0 0 0-1.06-1.06l-2.72 2.72v-1.19a.75.75 0 0 0-1.5 0v3c0 .414.336.75.75.75h3Z" fill="#5C5F62"/></svg>
